X:64
T:Walsh's
Z: id:dc-hornpipe-56
R:Hornpipe
M:C|
L:1/8
K:AMaj
cB|(3ABc EF Ace2|(3def Bc def2|fece aecA|(3Bcd cA BAF2|!
(3ABc EF Ace2|(3def Bc def2|fece aecA|(3Bcd cB A2:|!
(3efg|aece fece|aece fecB|ABce fecA|(3Bcd cA BAF2|!
(3ABc EF Ace2|(3def Bc def2|fece aecA|(3Bcd cB A2:|!
